src/assets/filled/CloseCircle.svg

<?xml version="1.0" encoding="UTF-8"?>
<svg width="24" height="24" viewBox="0 0 24 24" xmlns="http://www.w3.org/2000/svg">
 <path d="m12 2c-5.51 0-10 4.49-10 10s4.49 10 10 10 10-4.49 10-10-4.49-10-10-10zm3.36 12.3c0.29 0.29 0.29 0.77 0 1.06-0.15 0.15-0.34 0.22-0.53 0.22s-0.38-0.07-0.53-0.22l-2.3-2.3-2.3 2.3c-0.15 0.15-0.34 0.22-0.53 0.22s-0.38-0.07-0.53-0.22c-0.29-0.29-0.29-0.77 0-1.06l2.3-2.3-2.3-2.3c-0.29-0.29-0.29-0.77 0-1.06s0.77-0.29 1.06 0l2.3 2.3 2.3-2.3c0.29-0.29 0.77-0.29 1.06 0s0.29 0.77 0 1.06l-2.3 2.3 2.3 2.3z"/>
</svg>

<svg width="24" height="24" viewBox="0 0 24 24"  xmlns="http://www.w3.org/2000/svg">
<path d="M12 2C6.49 2 2 6.49 2 12C2 17.51 6.49 22 12 22C17.51 22 22 17.51 22 12C22 6.49 17.51 2 12 2ZM15.36 14.3C15.65 14.59 15.65 15.07 15.36 15.36C15.21 15.51 15.02 15.58 14.83 15.58C14.64 15.58 14.45 15.51 14.3 15.36L12 13.06L9.7 15.36C9.55 15.51 9.36 15.58 9.17 15.58C8.98 15.58 8.79 15.51 8.64 15.36C8.35 15.07 8.35 14.59 8.64 14.3L10.94 12L8.64 9.7C8.35 9.41 8.35 8.93 8.64 8.64C8.93 8.35 9.41 8.35 9.7 8.64L12 10.94L14.3 8.64C14.59 8.35 15.07 8.35 15.36 8.64C15.65 8.93 15.65 9.41 15.36 9.7L13.06 12L15.36 14.3Z" />
</svg>
